X: 10012
T: BLANCHE'S BOUQUET
C: Bob McQuillen 19 Oct 93
B: Bob's Note Book 10 #12
%R: reel
Z: 2021 John Chambers <jc:trillian.mit.edu>
M: C
L: 1/8
K: Em
GF \
| E2EG FEDF | E2EG F2GF | E2GE FGAF | GBdB ABGF |\
| E2EG FEDF | E2EG F2GA | Bded BGEG | bdBG AB :|
|: GA \
| B2ef gfed | B2ef gfed | c2ef gfed | efga gfed |\
| B2ef gfed | B2ef gfed | cdef gbge | dBAB GE :|
%%begintext align
%% Blanche Bouquet is a simply
%% super Seattle singer (so, by the way, is Dina Black! Yeah!) Blanche
%% sings what I guess would be called music hall songs, with the Volunteer
%% Park Conservatory Orchestra, and it sure is great fun to listen to her
%% "Betty Boop" style in full flight. She has another name she occasionally
%% goes by when she desires privacy, but it's _so_ private even I can't
%% remember it. If you need it, ask John Culhane - he may be able to help.
%% P.S. Blanche actually _lives_ in Olympia - but if she sings in
%% Seattle, doesn't that make her a Seattle singer?
%%endtext

%%sep 1 1 500

%%sep 1 1 500

